X:1
T:Title
%%score { 1 | 2 }
L:1/8
M:6/8
K:Db
V:1 treble nm="Grand Piano"
V:2 treble 
V:1
 z3 z2[Q:1/4=75] A/A/ | d>dd dA>F | AAA [FA]2 [FA]/[FA]/ | d>dd [=Gd][GB][Ge] | c3- c2 B/A/ | %5
 [Fd]>[Fd][Fd] [Fd][DFA][A,DF] |[M:5/8] [G,DG][G,DG][DA] [DB]2 |[M:1/8] [B,_Fd]/[B,Fd]/ | %8
[M:3/4] [A,FA]>[A,DF] [F,D][B,DG] [A,DF][K:bass][G,CE] |[M:5/8] [F,D]-[F,D]- [F,D]3 | %10
[M:1/8][K:treble] [DFA] |[M:3/4] e>e e[Ge] [Fd][Ec] | [Fd]3 [FA]2 [FA] | d>d dd cB | %14
 [GB]3 [FA]2 [FA]/[EG]/ | FF FG G>G |[M:13/16] AAAdd>DE/ | FFBAF3/2[Af] |[M:5/8] [Ge]3 [Fd]2 |] %19
V:2
 z3 z2 A,/A,/ | D>DD D[K:bass]A,>[D,A,D] | [A,CE][A,DF][A,EG][K:bass] [D,D]2 [D,D]/[D,D]/ | %3
 [B,DF]>[B,DF][B,DF][K:bass] [E,B,][E,E][E,E] | [A,EG]3- [A,EG]2 [A,DG]/[A,CG]/ | %5
 [D,A,]>[D,A,][D,A,] [D,A,]D,D,/_C,/ |[M:5/8] B,,B,,[A,,F,] [G,,G,]2 |[M:1/8] =G,,/G,,/ | %8
[M:3/4] A,,>A,, B,,G,, A,,A,, |[M:5/8] D,-D,- D,3 |[M:1/8] D, | %11
[M:3/4][K:treble] [A,CG]>[A,CG] [A,CG][K:bass][A,,A,] [A,,A,][A,,A,] | [D,A,]3 [D,D]2 [D,D] | %13
 [G,B,G]>[G,B,G] [G,B,G][B,DG] [A,DG][K:bass][G,DG] | [D,D]3 [D,D]2 [D,D]/[D,A,]/ | %15
 [D,A,D][D,A,D] [D,A,D][E,A,C] [E,A,C]>[E,A,C] | %16
[M:13/16] [F,A,D][F,A,D][F,_CD][G,B,D][G,B,D]>F,G,/ | A,A,G,F,A,3/2[A,,A,] | %18
[M:5/8] [A,,A,]3 [D,A,]2 |] %19

